static/dlkey_icon.svg

<?xml version="1.0" encoding="UTF-8" standalone="no"?>
<svg
   xmlns:dc="http://purl.org/dc/elements/1.1/"
   xmlns:cc="http://creativecommons.org/ns#"
   xmlns:rdf="http://www.w3.org/1999/02/22-rdf-syntax-ns#"
   xmlns:svg="http://www.w3.org/2000/svg"
   xmlns="http://www.w3.org/2000/svg"
   xmlns:sodipodi="http://sodipodi.sourceforge.net/DTD/sodipodi-0.dtd"
   xmlns:inkscape="http://www.inkscape.org/namespaces/inkscape"
   version="1.1"
   id="svg2"
   viewBox="0 0 150 150"
   height="150"
   width="150"
   inkscape:version="0.91 r"
   sodipodi:docname="dlkey_icon.svg"
   inkscape:export-filename="/home/darkwiiplayer/workspace/dlkeys/static/dlkey_icon.svg.png"
   inkscape:export-xdpi="180"
   inkscape:export-ydpi="180">
  <sodipodi:namedview
     pagecolor="#ffffff"
     bordercolor="#666666"
     borderopacity="1"
     objecttolerance="10"
     gridtolerance="10"
     guidetolerance="10"
     inkscape:pageopacity="0"
     inkscape:pageshadow="2"
     inkscape:window-width="1366"
     inkscape:window-height="714"
     id="namedview15"
     showgrid="false"
     inkscape:snap-bbox="true"
     inkscape:bbox-nodes="true"
     inkscape:zoom="1.5733333"
     inkscape:cx="72.583142"
     inkscape:cy="53.703079"
     inkscape:window-x="0"
     inkscape:window-y="0"
     inkscape:window-maximized="1"
     inkscape:current-layer="layer5"
     inkscape:snap-object-midpoints="false"
     showguides="true"
     inkscape:guide-bbox="true"
     inkscape:object-nodes="true"
     inkscape:object-paths="false">
    <inkscape:grid
       type="xygrid"
       id="grid4165" />
  </sodipodi:namedview>
  <defs
     id="defs4" />
  <metadata
     id="metadata7">
    <rdf:RDF>
      <cc:Work
         rdf:about="">
        <dc:format>image/svg+xml</dc:format>
        <dc:type
           rdf:resource="http://purl.org/dc/dcmitype/StillImage" />
        <dc:title />
      </cc:Work>
    </rdf:RDF>
  </metadata>
  <g
     style="display:none"
     transform="translate(0,-752.36219)"
     id="layer1">
    <path
       id="path4165"
       transform="translate(0,752.36219)"
       d="M 50,0 A 50.000004,50.000004 0 0 0 0,50 50.000004,50.000004 0 0 0 50,100 50.000004,50.000004 0 0 0 100,50 50.000004,50.000004 0 0 0 50,0 Z m 0,20 A 30.000008,30.000008 0 0 1 80,50 30.000008,30.000008 0 0 1 50,80 30.000008,30.000008 0 0 1 20,50 30.000008,30.000008 0 0 1 50,20 Z"
       style="fill-opacity:1;stroke:none;stroke-width:1;stroke-linecap:round;stroke-linejoin:round;stroke-miterlimit:4;stroke-dasharray:none;stroke-opacity:1"
       inkscape:connector-curvature="0" />
    <rect
       y="792.36218"
       x="90"
       height="20.000008"
       width="110"
       id="rect4169"
       style="fill-opacity:1;stroke:none;stroke-width:1;stroke-linecap:round;stroke-linejoin:round;stroke-miterlimit:4;stroke-dasharray:none;stroke-opacity:1" />
    <path
       id="rect4173"
       d="m 179.99998,862.36222 20,-30 -40,0 z"
       style="fill-opacity:1;stroke:none;stroke-width:1;stroke-linecap:round;stroke-linejoin:round;stroke-miterlimit:4;stroke-dasharray:none;stroke-opacity:1"
       inkscape:connector-curvature="0" />
    <rect
       transform="scale(1,-1)"
       style="fill-opacity:1;stroke:none;stroke-width:1;stroke-linecap:round;stroke-linejoin:round;stroke-miterlimit:4;stroke-dasharray:none;stroke-opacity:1"
       id="rect4171-3"
       width="20.000011"
       height="20.000008"
       x="169.99998"
       y="-832.36218" />
    <path
       id="path4191"
       d="m 149.99998,862.36222 0,10 60,0 0,-10"
       style="fill:none;fill-rule:evenodd;stroke:#000000;stroke-width:10;stroke-linecap:square;stroke-linejoin:miter;stroke-miterlimit:4;stroke-dasharray:none;stroke-opacity:1"
       inkscape:connector-curvature="0" />
    <rect
       y="-822.36218"
       x="139.99998"
       height="10.000015"
       width="19.999996"
       id="rect4193"
       style="fill-opacity:1;stroke:none;stroke-width:1;stroke-linecap:round;stroke-linejoin:round;stroke-miterlimit:4;stroke-dasharray:none;stroke-opacity:1"
       transform="scale(1,-1)" />
  </g>
  <g
     inkscape:groupmode="layer"
     id="layer4"
     inkscape:label="Background"
     style="display:inline">
    <rect
       style="fill:#0099ee;fill-opacity:1;stroke:none"
       id="rect4168"
       width="150"
       height="150"
       x="0"
       y="0" />
  </g>
  <g
     inkscape:groupmode="layer"
     id="layer5"
     inkscape:label="Shadow"
     style="display:inline">
    <path
       style="fill:#000000;fill-opacity:0.39215686;fill-rule:evenodd;stroke:none;stroke-width:1px;stroke-linecap:butt;stroke-linejoin:miter;stroke-opacity:1"
       d="M 79,21 C 63.833334,21 49,33.916667 49,56 l 0,15 -5,0 0,5.550781 6.900391,0 L 44.808594,95.65625 25,91 64.333984,150 150,150 150,104.96094 98.292969,27.400391 99.789062,71.503906 96.160156,71.671875 96.160156,71 59,71 59,56 c 0,-17.916667 10.166667,-25 20,-25 6.653025,0 13.453913,3.248201 17.160156,10.894531 l 0,-14.890625 C 91.117982,23.085442 85.086839,21 79,21 Z m -2,57 c 5.463624,0 10,4.536376 10,10 0,3.648732 -2.028613,6.87634 -5,8.623047 L 82,107 72,107 72,96.623047 C 69.028613,94.87634 67,91.648732 67,88 67,82.536376 71.536376,78 77,78 Z"
       id="path4168"
       inkscape:connector-curvature="0" />
  </g>
  <g
     inkscape:groupmode="layer"
     id="layer3"
     inkscape:label="Icon"
     style="display:inline"
     sodipodi:insensitive="true">
    <g
       style="display:inline"
       id="layer2">
      <path
         inkscape:connector-curvature="0"
         id="rect4153"
         d="M 75,15 C 59.833334,15 45,27.916667 45,50 l 0,15 -5,0 0,26 -15,0 50,44 50,-44 -15,0 0,-26 -5,0 0,-15 C 105,27.916667 90.166666,15 75,15 Z m 0,10 c 9.833333,0 20,7.083333 20,25 l 0,15 -40,0 0,-15 C 55,32.083333 65.166667,25 75,25 Z m 0,49 c 5.463624,0 10,4.536376 10,10 0,3.648732 -2.028613,6.87634 -5,8.623047 L 80,103 70,103 70,92.623047 C 67.028613,90.87634 65,87.648732 65,84 65,78.536376 69.536376,74 75,74 Z"
         style="fill:#ffffff;fill-opacity:1;stroke:none;stroke-width:10;stroke-miterlimit:4;stroke-dasharray:none;stroke-opacity:1" />
    </g>
    <g
       id="g4170"
       style="display:inline">
      <path
         style="fill:#ffffff;fill-opacity:1;stroke:none;stroke-width:10;stroke-miterlimit:4;stroke-dasharray:none;stroke-opacity:1"
         d="M 75,15 C 59.833334,15 45,27.916667 45,50 l 0,15 -5,0 0,26 -15,0 50,44 50,-44 -15,0 0,-26 -5,0 0,-15 C 105,27.916667 90.166666,15 75,15 Z m 0,10 c 9.833333,0 20,7.083333 20,25 l 0,15 -40,0 0,-15 C 55,32.083333 65.166667,25 75,25 Z m 0,49 c 5.463624,0 10,4.536376 10,10 0,3.648732 -2.028613,6.87634 -5,8.623047 L 80,103 70,103 70,92.623047 C 67.028613,90.87634 65,87.648732 65,84 65,78.536376 69.536376,74 75,74 Z"
         id="path4172"
         inkscape:connector-curvature="0" />
    </g>
  </g>
</svg>

<svg style="fill:#09e" height="150" width="150" id="logo">
	<g>
		<rect class="bg" height="150" width="150" y="0" x="0"/>
		<path class="shadow" style="fill:#000;fill-opacity:.4;fill-rule:evenodd;" d="m79 21c-15.167 0-30 12.917-30 35v15h-5v5.5508h6.9004l-6.091 19.105-19.809-4.656 39.334 59h85.666v-45.04l-51.707-77.56 1.496 44.104-3.629.168v-.672h-37.16v-15c0-17.917 10.167-25 20-25 6.653 0 13.454 3.2482 17.16 10.895v-14.891c-5.042-3.919-11.073-6.004-17.16-6.004zm-2 57c5.4636 0 10 4.5364 10 10 0 3.6487-2.0286 6.8763-5 8.623v10.377h-10v-10.377c-2.971-1.747-5-4.974-5-8.623 0-5.464 4.536-10 10-10z"/>
		<g class="fg">
			<path d="m75 15c-15.167 0-30 12.917-30 35v15h-5v26h-15l50 44 50-44h-15v-26h-5v-15c0-22.083-14.833-35-30-35zm0 10c9.8333 0 20 7.0833 20 25v15h-40v-15c0-17.917 10.167-25 20-25zm0 49c5.4636 0 10 4.5364 10 10 0 3.6487-2.0286 6.8763-5 8.623v10.377h-10v-10.377c-2.971-1.747-5-4.974-5-8.623 0-5.464 4.536-10 10-10z"/>
			<path d="m75 15c-15.167 0-30 12.917-30 35v15h-5v26h-15l50 44 50-44h-15v-26h-5v-15c0-22.083-14.833-35-30-35zm0 10c9.8333 0 20 7.0833 20 25v15h-40v-15c0-17.917 10.167-25 20-25zm0 49c5.4636 0 10 4.5364 10 10 0 3.6487-2.0286 6.8763-5 8.623v10.377h-10v-10.377c-2.971-1.747-5-4.974-5-8.623 0-5.464 4.536-10 10-10z"/>
		</g>
	</g>
</svg>
